icon/pk/error.svg

<svg width="48" height="48" fill="none" xmlns="http://www.w3.org/2000/svg"><path fill-rule="evenodd" clip-rule="evenodd" d="m6 11 5-5 13 13L37 6l5 5-13 13 13 13-5 5-13-13-13 13-5-5 13-13L6 11Z" fill="#2F88FF" stroke="#000" stroke-width="4" stroke-linecap="round" stroke-linejoin="round"/></svg>

<svg viewBox="0 0 48 48" fill="none" xmlns="http://www.w3.org/2000/svg" height="1em" width="1em">
  <path fill-rule="evenodd" clip-rule="evenodd" d="M6 11L11 6L24 19L37 6L42 11L29 24L42 37L37 42L24 29L11 42L6 37L19 24L6 11Z" fill="#2F88FF" stroke="black" stroke-width="4" stroke-linecap="round" stroke-linejoin="round"/>
</svg>
